X: 16
T: Franc A'Phoill
Z: skylos
S: https://thesession.org/tunes/31#setting53213
R: jig
M: 6/8
L: 1/8
K: Gmaj
|:~A2D ~B2D|~A2 G FED|~A2 D dAF|GAG EFG|
~A2D ~B2D|~A2G FED|CEG cBA|1 ~G2 A GFG:|2 ~G2 A GFG||
|:dfa afd|ded cAG|FGA cAF|GAG EFG|
dfa afa|gfe ~f2 e|dfe dAF|GEF GFE:|
|:ded dfe|dAG FED|dfd dAF|GEF GFE|
ded c2A|BAG AFD|CEG cAF|~G2 A GFG:|
|:dDD cDD|BDD ADD|ded cAF|GAG EFG
[1 dDD cDD|BDD ADD|CEG cAF |GAG EFG:|
[2 ded c2 A|BAG AFD|CEG cAF|GAG EFG|

%-------------------- TUNE SEPARATOR --------------------%

